X:564
T:69th Street
R:Polka
O:Ireland
B:Music of Corktown(?)
S:P. Varlet
D:Celtic Thunder: Green Linnet GL 1029 (1981)
Z:Transcription:?, chords:Mike Long
M:2/4
L:1/8
K:C
"Am"A>B cd|ea e2|"G"dB GB|"Em"AB GE|\
"Am"A>B cd|ea e2|"G"dB "Em"GB|\
[1 "Am"A2 AE:|[2 "Am"A2 A2|]"Am"aa e>e|
aa e2|"G"dB GB|"Em"AB GE|\
"Am"aa e>e|aa e2|"G"dB GB|"Am"A2 A2||
"Am"aa e>e|aa e2|"G"dB GB|"Em"AB GE|\
"Am"A>B cd|ea e2|"G"dB "Em"GB|"Am"A2 A2|]
